src/images/logo-foodsta.svg

<svg width="70" height="51" viewBox="0 0 70 51" fill="none">
<path d="M26.2892 10.2886C27.9043 7.12911 32.4193 7.12912 34.0344 10.2886L36.0789 14.2883C36.7114 15.5256 37.897 16.3862 39.2694 16.6041L43.6998 17.3076C47.209 17.8648 48.6055 22.1668 46.0926 24.6789L42.9313 27.839C41.9469 28.823 41.493 30.2188 41.7102 31.5936L42.4083 36.0124C42.9623 39.5191 39.3083 42.1765 36.143 40.5689L32.1312 38.5314C30.8935 37.9027 29.4301 37.9027 28.1924 38.5314L24.1807 40.5688C21.0153 42.1765 17.3613 39.5191 17.9153 36.0124L18.6134 31.5936C18.8307 30.2188 18.3767 28.823 17.3923 27.839L14.2311 24.6789C11.7182 22.1668 13.1146 17.8648 16.6238 17.3076L21.0542 16.6041C22.4266 16.3862 23.6122 15.5256 24.2447 14.2883L26.2892 10.2886Z" fill="#FFE553"/>
<path d="M5.53915 32.7247L5.50529 32.7327C5.50946 32.8508 5.50358 33.3289 5.48765 34.1668C5.483 35.0021 5.48188 35.5505 5.48429 35.8121C5.48403 36.0624 5.4787 36.2662 5.46833 36.4236C5.46924 36.5783 5.46986 36.7569 5.47018 36.9594C5.46783 37.1506 5.45745 37.308 5.43905 37.4315C5.42926 37.5411 5.41947 37.6506 5.40968 37.7602C5.38743 37.968 5.34244 38.0799 5.27471 38.0959C5.12798 38.1306 4.89864 38.0179 4.5867 37.7579C4.2721 37.4865 4.09072 37.2493 4.04257 37.0462C3.99442 36.8431 3.98176 35.3565 4.00458 32.5864C4.03869 29.8137 3.96405 27.9902 3.78066 27.116C3.74053 26.9467 3.74794 26.8019 3.80288 26.6817C3.85958 26.4181 4.15244 26.1702 4.68146 25.9381C5.22176 25.7033 6.02807 25.4593 7.10039 25.2061C8.18399 24.9503 9.04393 24.8069 9.68021 24.7759C10.3278 24.7422 10.6756 24.8269 10.7238 25.03C10.7559 25.1654 10.6827 25.284 10.5042 25.3857C10.3256 25.4874 10.167 25.5726 10.0283 25.6411C9.88692 25.6983 9.70172 25.7718 9.47271 25.8616C9.24102 25.9401 9.02626 26.0147 8.82844 26.0852C8.62794 26.1444 8.36803 26.2296 8.04871 26.3408C7.74069 26.4492 7.45524 26.5524 7.19236 26.6502C6.92681 26.7367 6.56932 26.8628 6.11991 27.0285C5.67049 27.1941 5.3794 27.2986 5.24662 27.3419C5.26594 27.3731 5.28362 27.4225 5.29967 27.4902C5.42538 28.0206 5.49416 29.2914 5.506 31.3025C6.21385 31.1711 6.96046 30.977 7.74583 30.7201C8.54248 30.4605 9.03111 30.3094 9.21171 30.2668C9.64064 30.1655 9.8765 30.2052 9.9193 30.3858C10.0022 30.7356 9.58076 31.1449 8.65491 31.6137C7.74036 32.0799 6.70177 32.4502 5.53915 32.7247ZM16.592 29.6149C16.501 29.2312 16.3533 28.8847 16.1489 28.5755C15.9418 28.255 15.7011 28.0437 15.4266 27.9417C14.6985 28.3399 14.17 29.1022 13.8411 30.2286C13.5207 31.3409 13.4635 32.3316 13.6694 33.2006C13.8754 34.0695 14.2183 34.5606 14.698 34.6737C15.4733 34.3239 16.0307 33.6084 16.3704 32.5272C16.7187 31.432 16.7926 30.4613 16.592 29.6149ZM12.1751 30.8185C12.3616 29.845 12.7039 29.0015 13.2023 28.288C13.7093 27.5606 14.2957 27.1182 14.9617 26.961C15.639 26.8011 16.2715 26.9557 16.8595 27.4246C17.4447 27.8823 17.835 28.523 18.0302 29.3469C18.2228 30.1594 18.2232 31.0411 18.0315 31.9921C17.837 32.9317 17.4567 33.7663 16.8907 34.4957C16.3332 35.2112 15.665 35.6609 14.8862 35.8448C14.3105 35.9807 13.7679 35.8287 13.2584 35.3889C12.749 34.9491 12.3979 34.323 12.2053 33.5104C12.0101 32.6866 12 31.7893 12.1751 30.8185ZM24.264 27.8037C24.173 27.4201 24.0253 27.0736 23.8209 26.7643C23.6138 26.4438 23.3731 26.2325 23.0986 26.1305C22.3706 26.5288 21.842 27.2911 21.5131 28.4174C21.1927 29.5298 21.1355 30.5205 21.3414 31.3894C21.5474 32.2584 21.8903 32.7494 22.37 32.8626C23.1453 32.5127 23.7027 31.7972 24.0424 30.716C24.3907 29.6209 24.4646 28.6501 24.264 27.8037ZM19.8471 29.0073C20.0336 28.0338 20.3759 27.1903 20.8743 26.4768C21.3813 25.7494 21.9677 25.3071 22.6337 25.1499C23.311 24.99 23.9436 25.1445 24.5315 25.6135C25.1167 26.0712 25.507 26.7119 25.7022 27.5357C25.8948 28.3482 25.8952 29.23 25.7035 30.1809C25.509 31.1206 25.1287 31.9551 24.5627 32.6846C24.0052 33.4001 23.337 33.8498 22.5582 34.0337C21.9825 34.1695 21.4399 34.0176 20.9305 33.5778C20.421 33.138 20.0699 32.5118 19.8773 31.6993C19.6821 30.8755 19.672 29.9782 19.8471 29.0073ZM32.2638 17.8715C32.4444 17.8289 32.7046 17.9462 33.0445 18.2235C33.3929 18.4868 33.6019 18.7651 33.6715 19.0586C33.741 19.352 33.7979 20.2204 33.842 21.6638C33.8835 23.0959 33.8919 24.5895 33.8671 26.1445C33.8355 29.6316 33.6898 31.4058 33.4302 31.4671C33.2722 31.5044 33.0745 31.4497 32.8371 31.3032C32.6084 31.1427 32.4766 30.9891 32.4419 30.8424C32.4071 30.6957 32.377 30.3929 32.3517 29.9342C31.513 31.3238 30.6817 32.1159 29.8577 32.3104C29.3611 32.4277 28.8561 32.3086 28.3427 31.9531C27.8406 31.5949 27.5321 31.1732 27.4171 30.688C27.2512 29.9883 27.2409 29.1149 27.386 28.0677C27.5398 27.0066 27.8786 25.9971 28.4024 25.0393C28.9263 24.0814 29.589 23.5079 30.3904 23.3187C31.1918 23.1295 31.8642 23.4773 32.4076 24.3619C32.4162 21.8335 32.2842 19.8687 32.0116 18.4673C31.9314 18.1287 32.0154 17.9301 32.2638 17.8715ZM32.3714 26.6227C32.2269 26.0133 31.998 25.5251 31.6845 25.1582C31.3824 24.7886 31.0846 24.6385 30.7911 24.7077C30.3058 24.8223 29.88 25.2386 29.5138 25.9567C29.1476 26.6747 28.9045 27.459 28.7843 28.3096C28.6727 29.1463 28.6838 29.8468 28.8175 30.411C28.8656 30.6141 28.9778 30.7605 29.154 30.85C29.3301 30.9394 29.5198 30.9602 29.723 30.9123C30.1632 30.8083 30.6809 30.3524 31.2761 29.5446C31.8825 28.7341 32.2534 27.8601 32.3888 26.9224L32.3914 26.7073L32.3714 26.6227ZM43.1804 25.6082C43.3997 26.5336 43.1666 27.4109 42.4812 28.24C41.793 29.0579 40.9071 29.5947 39.8235 29.8505C38.7512 30.1037 37.7996 30.0364 36.9687 29.6486C36.1351 29.2496 35.6595 28.8018 35.5418 28.3052C35.4615 27.9667 35.523 27.7734 35.7262 27.7254C35.9068 27.6828 36.3265 27.8697 36.9854 28.2862C37.2341 28.43 37.5478 28.5467 37.9265 28.636C38.3166 28.7227 38.7035 28.7207 39.0873 28.6301C39.8774 28.4436 40.5291 28.0752 41.0423 27.5251C41.5668 26.9722 41.7729 26.4588 41.6606 25.9849C41.5883 25.6802 41.2929 25.3388 40.7742 24.9608C40.2555 24.5827 39.6983 24.2435 39.1027 23.9432C38.5157 23.629 37.9615 23.2772 37.4401 22.8878C36.9188 22.4985 36.6246 22.1628 36.5578 21.8807C36.4909 21.5985 36.4765 21.2861 36.5144 20.9435C36.5524 20.6009 36.6217 20.3402 36.7224 20.1615C37.0476 19.5724 37.6249 18.9654 38.4541 18.3406C39.2947 17.7132 40.031 17.3249 40.6631 17.1756C40.9905 17.0984 41.2924 17.1403 41.569 17.3014C41.8456 17.4625 42.012 17.6616 42.0681 17.8986C42.0949 18.0114 41.9978 18.1297 41.7768 18.2534C41.5558 18.377 41.216 18.5526 40.7574 18.78C40.3074 18.9935 39.9135 19.2176 39.5758 19.4522C38.3954 20.2552 37.8601 20.888 37.9697 21.3507C38.0286 21.599 38.8534 22.1371 40.4442 22.9652C41.0565 23.2854 41.6353 23.6909 42.1808 24.1818C42.7348 24.6588 43.068 25.1342 43.1804 25.6082ZM47.0697 26.4597C47.1205 26.6741 47.2701 26.752 47.5184 26.6934C47.9473 26.5921 48.4385 26.351 48.9918 25.9702C49.5538 25.5753 49.8686 25.3699 49.9364 25.3539C50.1395 25.306 50.2665 25.3892 50.3174 25.6036C50.3949 25.9309 50.1459 26.3889 49.5703 26.9776C49.006 27.5636 48.4473 27.9219 47.8942 28.0525C47.3524 28.1804 46.8661 28.1403 46.4354 27.9322C46.0019 27.7127 45.7478 27.445 45.6729 27.129C45.598 26.8131 45.5708 26.3964 45.5912 25.8792C45.6089 25.3507 45.647 24.6565 45.7054 23.7966C45.7725 22.9228 45.8165 22.2034 45.8375 21.6383C45.3364 21.8877 44.9956 22.0337 44.815 22.0763C44.6344 22.119 44.4324 22.0713 44.209 21.9334C43.9942 21.7815 43.8667 21.621 43.8266 21.4517C43.7624 21.1808 44.4346 20.7481 45.8431 20.1534C45.8243 19.1688 45.7292 18.3153 45.5581 17.5931C45.4778 17.2545 45.5506 17.0586 45.7763 17.0053C45.9682 16.96 46.2347 17.0282 46.5757 17.2098C46.9141 17.3802 47.1194 17.6177 47.1916 17.9224C47.2638 18.2271 47.2949 18.7858 47.2849 19.5985C47.9149 19.3902 48.4218 19.2408 48.8056 19.1502C49.4829 18.9903 49.8563 19.057 49.9258 19.3505C49.9659 19.5197 49.8131 19.7048 49.4674 19.9055C49.1329 20.1037 48.4068 20.4598 47.2891 20.9739C47.2634 21.9214 47.2063 23.0133 47.118 24.2497C47.0269 25.4747 47.0108 26.2114 47.0697 26.4597ZM54.6359 17.595C55.1438 17.4751 55.6738 17.6241 56.2257 18.042C56.775 18.4485 57.0992 18.8606 57.1981 19.2781C57.2944 19.6844 57.2523 20.1353 57.0718 20.6307C57.2473 20.768 57.3498 20.8987 57.3793 21.0229C57.4542 21.3389 57.5092 21.8979 57.5443 22.6999C57.5908 23.4993 57.6252 24.0214 57.6475 24.2664C57.6811 24.5087 57.704 24.7059 57.7162 24.8579C57.7257 24.9987 57.7296 25.1408 57.7278 25.2842C57.7495 25.577 57.6814 25.742 57.5233 25.7793C57.3202 25.8273 57.1094 25.6923 56.891 25.3745C56.6813 25.0427 56.4982 24.5973 56.3419 24.0384C55.6396 25.5507 54.8595 26.4082 54.0016 26.6107C53.4824 26.7333 52.9167 26.6345 52.3044 26.3143C51.7008 25.9801 51.3428 25.576 51.2304 25.1021C51.0699 24.4249 51.1203 23.5312 51.3816 22.4209C51.6402 21.2993 52.0722 20.2559 52.6778 19.2907C53.2834 18.3254 53.9361 17.7602 54.6359 17.595ZM56.1209 20.3904C55.8721 19.3409 55.5389 18.8655 55.1213 18.9641C54.6811 19.068 54.2424 19.5052 53.8052 20.2757C53.3654 21.035 53.0359 21.8576 52.8168 22.7434C52.5977 23.6293 52.543 24.3036 52.6526 24.7663C52.6981 24.9582 52.8146 25.0975 53.002 25.1843C53.1868 25.2599 53.3864 25.2723 53.6009 25.2217C54.1314 25.0965 54.6454 24.5998 55.1428 23.7316C55.6376 22.8521 55.8931 21.8683 55.9093 20.78C55.903 20.6028 55.9749 20.4785 56.1249 20.4074L56.1209 20.3904Z" fill="#2C2C2C"/>
<path fill-rule="evenodd" clip-rule="evenodd" d="M52.8447 31.832C52.3608 31.9515 51.9792 32.3193 51.8195 32.7915C48.7739 41.7956 40.2432 48.2818 30.19 48.2818C24.0936 48.2818 18.557 45.8965 14.464 42.0109C14.1034 41.6686 13.5959 41.5216 13.1132 41.6408V41.6408C12.0923 41.8928 11.7062 43.1299 12.4637 43.8592C17.0571 48.2807 23.3055 51 30.19 51C41.5007 51 51.0943 43.6601 54.4527 33.491C54.7821 32.4934 53.8647 31.5802 52.8447 31.832V31.832ZM6.67274 22.5517C7.22444 22.4155 7.63376 21.956 7.73564 21.3969C9.67114 10.776 18.9849 2.71824 30.19 2.71824C37.4754 2.71824 43.9613 6.12459 48.1395 11.427C48.4901 11.872 49.0644 12.0861 49.6145 11.9504V11.9504C50.5471 11.7201 50.9685 10.6361 50.3789 9.87766C45.7062 3.86767 38.4005 0 30.19 0C17.5948 0 7.12894 9.10166 5.03111 21.0764C4.8657 22.0206 5.74215 22.7814 6.67274 22.5517V22.5517Z" fill="#BBF330"/>
<path d="M68.5958 8.49721C62.5596 20.0377 59.9098 12.4258 51.4127 16.8972C52.2625 3.50082 61.2619 11.6519 68.5958 8.49721Z" fill="#BBF330" stroke="#BBF330" stroke-linejoin="round"/>
</svg>

<svg width="70" height="51" fill="none"><path d="M26.29 10.289c1.614-3.16 6.13-3.16 7.744 0l2.045 4a4.35 4.35 0 0 0 3.19 2.315l4.43.704c3.51.557 4.907 4.859 2.394 7.37L42.93 27.84a4.35 4.35 0 0 0-1.22 3.755l.697 4.418c.554 3.507-3.1 6.164-6.265 4.557l-4.012-2.038a4.349 4.349 0 0 0-3.939 0l-4.011 2.038c-3.166 1.607-6.82-1.05-6.266-4.557l.698-4.418a4.349 4.349 0 0 0-1.22-3.755l-3.162-3.16c-2.513-2.512-1.116-6.814 2.393-7.371l4.43-.704a4.35 4.35 0 0 0 3.19-2.316l2.045-4Z" fill="#FFE553"/><path d="m5.54 32.725-.035.008c.004.118-.001.596-.017 1.434-.005.835-.006 1.383-.004 1.645 0 .25-.005.454-.016.612l.002.535a3.609 3.609 0 0 1-.03.472l-.03.33c-.023.207-.068.319-.135.335-.147.035-.376-.078-.688-.338-.315-.272-.496-.509-.544-.712-.049-.203-.061-1.69-.038-4.46.034-2.772-.041-4.596-.224-5.47a.662.662 0 0 1 .022-.434c.057-.264.35-.512.878-.744.54-.235 1.347-.479 2.42-.732 1.083-.256 1.943-.4 2.58-.43.647-.034.995.05 1.043.254.032.135-.041.254-.22.356a9.318 9.318 0 0 1-.476.255c-.141.057-.326.13-.555.22a43.64 43.64 0 0 0-.645.224c-.2.06-.46.145-.78.256-.307.108-.593.211-.856.31-.265.086-.623.212-1.072.378-.45.165-.74.27-.873.313.019.031.037.08.053.148.125.53.194 1.801.206 3.813a17.51 17.51 0 0 0 2.24-.583c.796-.26 1.285-.41 1.466-.453.429-.101.665-.062.707.119.083.35-.338.759-1.264 1.228-.915.466-1.953.836-3.116 1.11Zm11.052-3.11a3.211 3.211 0 0 0-.443-1.04c-.207-.32-.448-.531-.722-.633-.729.398-1.257 1.16-1.586 2.287-.32 1.112-.377 2.103-.172 2.972.206.868.55 1.36 1.029 1.473.775-.35 1.333-1.066 1.672-2.147.349-1.095.423-2.066.222-2.912Zm-4.417 1.204c.187-.974.529-1.817 1.027-2.531.507-.727 1.094-1.17 1.76-1.327.677-.16 1.31-.005 1.898.464.585.457.975 1.098 1.17 1.922.193.812.193 1.694.002 2.645a6.013 6.013 0 0 1-1.141 2.504c-.558.715-1.226 1.165-2.005 1.349-.575.136-1.118-.016-1.628-.456-.509-.44-.86-1.066-1.053-1.879-.195-.823-.205-1.72-.03-2.691Zm12.089-3.015a3.213 3.213 0 0 0-.443-1.04c-.207-.32-.448-.531-.722-.633-.728.398-1.257 1.16-1.586 2.286-.32 1.113-.378 2.103-.172 2.972.206.87.55 1.36 1.029 1.474.775-.35 1.333-1.066 1.672-2.147.349-1.095.423-2.066.222-2.912Zm-4.417 1.203c.187-.973.529-1.817 1.027-2.53.507-.728 1.094-1.17 1.76-1.327.677-.16 1.31-.005 1.898.463.585.458.975 1.099 1.17 1.923.193.812.193 1.694.001 2.645a6.013 6.013 0 0 1-1.14 2.504c-.558.715-1.226 1.165-2.005 1.349-.575.136-1.118-.016-1.628-.456-.509-.44-.86-1.066-1.053-1.879-.195-.824-.205-1.72-.03-2.692Zm12.417-11.136c.18-.042.44.075.78.353.349.263.558.541.628.835.069.293.126 1.161.17 2.605.041 1.432.05 2.925.025 4.48-.031 3.488-.177 5.262-.437 5.323-.158.037-.355-.017-.593-.164-.229-.16-.36-.314-.395-.46-.035-.147-.065-.45-.09-.909-.839 1.39-1.67 2.182-2.494 2.376-.497.118-1.002-.001-1.515-.357-.502-.358-.81-.78-.926-1.265-.166-.7-.176-1.573-.031-2.62a8.938 8.938 0 0 1 1.016-3.029c.524-.958 1.187-1.531 1.988-1.72.802-.19 1.474.158 2.018 1.043.008-2.528-.124-4.493-.396-5.895-.08-.338.003-.537.252-.595Zm.107 8.752c-.144-.61-.373-1.098-.687-1.465-.302-.37-.6-.52-.893-.45-.485.114-.911.53-1.277 1.249a7.426 7.426 0 0 0-.73 2.353c-.111.836-.1 1.537.034 2.101.048.203.16.35.336.439a.81.81 0 0 0 .569.062c.44-.104.958-.56 1.553-1.367.607-.81.977-1.685 1.113-2.623l.002-.215-.02-.084Zm10.81-1.015c.219.926-.014 1.803-.7 2.632-.688.818-1.574 1.355-2.657 1.61-1.073.254-2.024.186-2.855-.201-.834-.4-1.31-.847-1.427-1.344-.08-.338-.019-.532.184-.58.18-.042.6.145 1.26.561.248.144.562.26.94.35.39.087.777.085 1.161-.006.79-.186 1.442-.555 1.955-1.105.525-.553.73-1.066.619-1.54-.073-.305-.368-.646-.887-1.024a12.011 12.011 0 0 0-1.671-1.018 13.123 13.123 0 0 1-1.663-1.055c-.521-.39-.815-.725-.882-1.007a2.745 2.745 0 0 1-.044-.938c.038-.342.108-.603.208-.782.326-.589.903-1.196 1.732-1.82.84-.628 1.577-1.016 2.21-1.165.326-.078.628-.036.905.125.277.162.443.36.5.598.026.112-.071.23-.292.354-.221.124-.561.3-1.02.527-.45.213-.843.438-1.181.672-1.18.803-1.716 1.436-1.606 1.899.059.248.883.786 2.474 1.614.612.32 1.191.726 1.737 1.217.554.477.887.952 1 1.426Zm3.889.852c.05.214.2.292.448.233.43-.1.92-.342 1.474-.723.562-.395.877-.6.944-.616.203-.048.33.035.381.25.078.327-.171.785-.747 1.374-.564.586-1.123.944-1.676 1.074-.542.128-1.028.088-1.459-.12-.433-.22-.687-.487-.762-.803-.075-.316-.102-.733-.082-1.25.018-.528.056-1.223.114-2.082.068-.874.111-1.594.133-2.159-.502.25-.842.396-1.023.438-.18.043-.383-.005-.606-.143-.215-.151-.342-.312-.382-.481-.065-.271.608-.704 2.016-1.299-.019-.984-.114-1.838-.285-2.56-.08-.338-.007-.534.218-.588.192-.045.459.023.8.205.338.17.543.408.616.712.072.305.103.864.093 1.677.63-.209 1.137-.358 1.52-.449.678-.16 1.051-.093 1.12.2.04.17-.112.355-.458.555-.334.199-1.06.555-2.178 1.069-.026.947-.083 2.04-.171 3.276-.091 1.225-.107 1.961-.048 2.21Zm7.566-8.865c.508-.12 1.038.03 1.59.447.549.406.873.819.972 1.236.096.406.054.857-.126 1.353.175.137.278.268.307.392.075.316.13.875.165 1.677.047.8.081 1.321.104 1.566.033.243.056.44.068.592.01.14.014.283.012.426.021.293-.047.458-.205.495-.203.048-.414-.087-.632-.404-.21-.332-.393-.778-.55-1.337-.701 1.513-1.482 2.37-2.34 2.573-.519.122-1.084.023-1.697-.297-.603-.334-.961-.738-1.074-1.212-.16-.677-.11-1.57.152-2.681.258-1.122.69-2.165 1.296-3.13.605-.966 1.258-1.53 1.958-1.696Zm1.485 2.795c-.249-1.05-.582-1.524-1-1.426-.44.104-.879.541-1.316 1.312-.44.759-.77 1.582-.988 2.467-.22.886-.274 1.56-.164 2.023a.594.594 0 0 0 .349.418.962.962 0 0 0 .599.038c.53-.126 1.044-.622 1.542-1.49.495-.88.75-1.864.766-2.952-.006-.177.066-.302.216-.373l-.004-.017Z" fill="#2C2C2C"/><path fill-rule="evenodd" clip-rule="evenodd" d="M52.845 31.832c-.484.12-.866.487-1.026.96-3.045 9.004-11.576 15.49-21.629 15.49a22.766 22.766 0 0 1-15.726-6.271 1.46 1.46 0 0 0-1.35-.37c-1.022.252-1.408 1.489-.65 2.218A25.479 25.479 0 0 0 30.19 51c11.31 0 20.904-7.34 24.263-17.509.33-.998-.588-1.91-1.608-1.659Zm-46.172-9.28a1.446 1.446 0 0 0 1.063-1.155C9.67 10.776 18.985 2.718 30.19 2.718c7.285 0 13.771 3.407 17.95 8.709.35.445.924.66 1.474.523.933-.23 1.355-1.314.765-2.072C45.706 3.868 38.4 0 30.19 0 17.595 0 7.129 9.102 5.031 21.076c-.165.945.711 1.705 1.642 1.476Z" fill="#BBF330"/><path d="M68.596 8.497c-6.036 11.54-8.686 3.929-17.183 8.4.85-13.396 9.849-5.245 17.183-8.4Z" fill="#BBF330" stroke="#BBF330" stroke-linejoin="round"/></svg>
